X: 1
T: Always Welcome
O: Trad.
R: reel
Z: 2014 John Chambers <jc:trillian.mit.edu>
S: PDF image of set for The Flowers of Edinburgh from George Meikle 2012
N: This tune has a 3rd part in O'Neill's, for 48 bars.
M: C|
L: 1/8
K: A
AF |\
"A"E2EF "E7"A2AB | "F#m"cBAB "C#m"cee2 | "D"f2fg "Bm"agaf | "C#m"ecBc "F#m"AFFA |
"A"E2EF "E7"A2AB | "A"cBAB cee2 | "D"fefg "B7"agaf | "E7"ecBc "A"A2 :|
|: ze |\
"A"A2Ac ecc2 | "A"ecac "F#m"ecc2 | "Bm"B2Bd "D"fefg | "F#m"agaf "E7"ecBc |
"A"A2Ac ecc2 | "A"ecac "A7"ecc2 | "D"fefg "Bm"agaf | "E7"ecBc "A"A2 :|
